packages/icons/src/circle-thunder.svg

<svg width="24" height="24" viewBox="0 0 24 24" fill="none" xmlns="http://www.w3.org/2000/svg">
<path d="M12 22C10.6167 22 9.31667 21.7375 8.1 21.2125C6.88333 20.6875 5.825 19.975 4.925 19.075C4.025 18.175 3.3125 17.1167 2.7875 15.9C2.2625 14.6833 2 13.3833 2 12C2 10.6167 2.2625 9.31667 2.7875 8.1C3.3125 6.88333 4.025 5.825 4.925 4.925C5.825 4.025 6.88333 3.3125 8.1 2.7875C9.31667 2.2625 10.6167 2 12 2C13.3833 2 14.6833 2.2625 15.9 2.7875C17.1167 3.3125 18.175 4.025 19.075 4.925C19.975 5.825 20.6875 6.88333 21.2125 8.1C21.7375 9.31667 22 10.6167 22 12C22 13.3833 21.7375 14.6833 21.2125 15.9C20.6875 17.1167 19.975 18.175 19.075 19.075C18.175 19.975 17.1167 20.6875 15.9 21.2125C14.6833 21.7375 13.3833 22 12 22ZM12 20C14.2333 20 16.125 19.225 17.675 17.675C19.225 16.125 20 14.2333 20 12C20 9.76667 19.225 7.875 17.675 6.325C16.125 4.775 14.2333 4 12 4C9.76667 4 7.875 4.775 6.325 6.325C4.775 7.875 4 9.76667 4 12C4 14.2333 4.775 16.125 6.325 17.675C7.875 19.225 9.76667 20 12 20ZM11.4 13.5V16.925C11.4 17.1917 11.525 17.3542 11.775 17.4125C12.025 17.4708 12.2167 17.3833 12.35 17.15L15.375 11.225C15.4583 11.0583 15.45 10.8958 15.35 10.7375C15.25 10.5792 15.1083 10.5 14.925 10.5H12.75V7.025C12.75 6.75833 12.625 6.59167 12.375 6.525C12.125 6.45833 11.9333 6.54167 11.8 6.775L8.65 12.775C8.56667 12.9583 8.57083 13.125 8.6625 13.275C8.75417 13.425 8.89167 13.5 9.075 13.5H11.4Z" fill="black"/>
</svg>

<svg xmlns="http://www.w3.org/2000/svg" width="24" height="24" fill="none" viewBox="0 0 24 24">
  <path fill="#000" d="M12 22a9.738 9.738 0 0 1-3.9-.788 10.099 10.099 0 0 1-3.175-2.137c-.9-.9-1.612-1.958-2.137-3.175A9.738 9.738 0 0 1 2 12a9.74 9.74 0 0 1 .788-3.9 10.099 10.099 0 0 1 2.137-3.175c.9-.9 1.958-1.612 3.175-2.137A9.738 9.738 0 0 1 12 2a9.74 9.74 0 0 1 3.9.788 10.098 10.098 0 0 1 3.175 2.137c.9.9 1.613 1.958 2.137 3.175A9.738 9.738 0 0 1 22 12a9.738 9.738 0 0 1-.788 3.9 10.098 10.098 0 0 1-2.137 3.175c-.9.9-1.958 1.613-3.175 2.137A9.738 9.738 0 0 1 12 22Zm0-2c2.233 0 4.125-.775 5.675-2.325C19.225 16.125 20 14.233 20 12c0-2.233-.775-4.125-2.325-5.675C16.125 4.775 14.233 4 12 4c-2.233 0-4.125.775-5.675 2.325C4.775 7.875 4 9.767 4 12c0 2.233.775 4.125 2.325 5.675C7.875 19.225 9.767 20 12 20Zm-.6-6.5v3.425c0 .267.125.43.375.488.25.058.442-.03.575-.263l3.025-5.925a.467.467 0 0 0-.025-.487.475.475 0 0 0-.425-.238H12.75V7.025c0-.267-.125-.433-.375-.5s-.442.017-.575.25l-3.15 6c-.083.183-.08.35.012.5.092.15.23.225.413.225H11.4Z"/>
</svg>
